X:1
T:Malatya
Z:Erik Ronstrm 2008
O:Turkiet
M:2/4
L:1/16
K:Am
|:GAAA A2g2|e3f ede2|GAAA A2g2|1 e4 z4:|2 e2z2 L_e4|
|:"D"d3d _edc2|dd2d _edc2|"G"Bcd_e dcdB|"Cm"c8:|
|:"Am"AcBA Bcd2|A3B A2G2|"G"GcBA Bcd2|"Am"A8:|
|:Lg4 L^f4|L_e4 Ld3c|"G"Bcd_e dcdB|"Am"c8:|
|:"Am"AcBA Bcd2|A3B A2G2|"G"GcBA Bcd2|"Am"A8:|
